X: 1079
T:Walking to Westport
C:Charlie Derrington
L:1/8
Q:1/8=454
M:4/4
K:G
|:"G"G,2G2 G,2G2|G,2=FE DC (3A,^A,=A,|G,2G2 G,2G2|G,2=F^F "D"D2d'2|!
"G"G,2G2 G,2G2|G,2=FE DC (3A,^A,=A,|\
G,2G,A, ^A,DDE|1 "D"D^A, (3=A,^A,=A, "G"G,4:|2 "D"D^A, (3=A,^A,=A, 
"G"G,2G,A,|!
|:"C7"[c2E2^A,2][c2E2A,2] [cEA,][DG,] (3=A,^A,=A,|\
"G"[G2G,2][G2G,2] [G2G,2][G2G,2]|"C7"[c2E2^A,2][c2E2A,2] [cEA,][DG,] 
(3=A,^A,=A,|\
"G"[G2G,2][G2G,2] [G2G,2][G2G,2]|!
"C7"[c2E2^A,2][c2E2A,2] [cEA,][DG,] (3=A,^A,=A,|"G"[G2G,2][G2G,2] 
[G2G,2]A^A|\
BdGB AGEF|1 GEDB, G,2G,B,:|2 GEDB, G,2z2||!

